the-plus-addons-for-block-editor/assets/images/coupon-code/code-3.svg

<svg xmlns="http://www.w3.org/2000/svg" width="1000" height="700" fill="none" viewBox="0 0 1000 700"><path fill="#FCFCFF" d="M0 0h1000v700H0z"/><rect width="520" height="104" x="240" y="298" fill="#F2F2F2" rx="7.429"/><g stroke="#E8E8E8" stroke-width="1.486" clip-path="url(#a)"><path d="M423.677 431.217 615.334 218.76M572.248 431.217 763.906 218.76M497.963 431.217 689.62 218.76M646.534 431.217 838.191 218.76M460.82 431.217 652.477 218.76M609.391 431.217 801.048 218.76M535.106 431.217 726.763 218.76M683.677 431.217 875.334 218.76M431.106 431.217 622.763 218.76M579.677 431.217 771.334 218.76M505.391 431.217 697.048 218.76M653.963 431.217 845.62 218.76M468.248 431.217 659.906 218.76M616.82 431.217 808.477 218.76M542.534 431.217 734.191 218.76M691.106 431.217 882.763 218.76M438.534 431.217 630.191 218.76M587.106 431.217 778.763 218.76M512.82 431.217 704.477 218.76M661.391 431.217 853.048 218.76M475.677 431.217 667.334 218.76M624.248 431.217 815.906 218.76M549.963 431.217 741.62 218.76M698.534 431.217 890.191 218.76M445.963 431.217 637.62 218.76M594.534 431.217 786.191 218.76M520.248 431.217 711.906 218.76M668.82 431.217 860.477 218.76M483.106 431.217 674.763 218.76M631.677 431.217 823.334 218.76M557.391 431.217 749.048 218.76M705.963 431.217 897.62 218.76M453.391 431.217 645.048 218.76M601.963 431.217 793.62 218.76M527.677 431.217 719.334 218.76M676.248 431.217 867.906 218.76M490.534 431.217 682.191 218.76M639.106 431.217 830.763 218.76M564.82 431.217 756.477 218.76M713.391 431.217 905.048 218.76M713.391 438.645l191.657-212.457M719.334 438.645l191.657-212.457"/></g><mask id="b" width="520" height="104" x="240" y="298" maskUnits="userSpaceOnUse" style="mask-type:alpha"><rect width="520" height="104" x="240" y="298" fill="#8072FC" rx="7.429"/></mask><g mask="url(#b)"><path fill="#13234A" d="M559.985 365.295c-1.966 0-3.736-.337-5.309-1.011-1.574-.703-2.81-1.686-3.709-2.95-.899-1.264-1.348-2.739-1.348-4.425h5.141c.112 1.264.604 2.304 1.475 3.118.899.815 2.149 1.223 3.75 1.223 1.658 0 2.95-.394 3.877-1.18.927-.815 1.391-1.855 1.391-3.119 0-.983-.295-1.784-.885-2.402-.562-.618-1.278-1.095-2.149-1.432-.843-.338-2.023-.703-3.54-1.096-1.91-.506-3.47-1.011-4.678-1.517-1.179-.534-2.191-1.349-3.034-2.444-.842-1.096-1.264-2.557-1.264-4.383 0-1.685.422-3.16 1.264-4.425.843-1.264 2.023-2.233 3.54-2.907 1.517-.674 3.273-1.012 5.268-1.012 2.837 0 5.155.717 6.953 2.15 1.826 1.404 2.837 3.343 3.034 5.815h-5.31c-.084-1.068-.59-1.981-1.517-2.739-.927-.759-2.149-1.138-3.666-1.138-1.377 0-2.5.351-3.371 1.054-.871.702-1.307 1.713-1.307 3.034 0 .899.267 1.643.801 2.233.562.562 1.264 1.011 2.107 1.348.843.338 1.995.703 3.456 1.096 1.938.534 3.511 1.068 4.719 1.601 1.236.534 2.276 1.363 3.119 2.487.871 1.095 1.306 2.57 1.306 4.424 0 1.489-.407 2.894-1.222 4.214-.787 1.321-1.953 2.388-3.498 3.203-1.517.787-3.315 1.18-5.394 1.18Zm20.586-4.172h9.903V365h-14.707v-29.287h4.804v25.41Zm33.094-22.713h-14.116v8.386c.59-.787 1.46-1.447 2.612-1.981a8.992 8.992 0 0 1 3.751-.801c2.36 0 4.27.506 5.731 1.517 1.489 1.012 2.542 2.29 3.16 3.835.646 1.545.969 3.175.969 4.888 0 2.079-.407 3.933-1.222 5.563-.786 1.601-1.98 2.865-3.581 3.792-1.574.927-3.512 1.391-5.816 1.391-3.062 0-5.52-.759-7.374-2.276s-2.964-3.525-3.329-6.026h4.677c.309 1.321.997 2.374 2.065 3.161 1.068.758 2.402 1.138 4.003 1.138 1.995 0 3.484-.604 4.467-1.812 1.012-1.208 1.517-2.81 1.517-4.804 0-2.023-.505-3.568-1.517-4.636-1.011-1.095-2.5-1.643-4.467-1.643-1.376 0-2.542.351-3.497 1.053-.927.675-1.602 1.602-2.023 2.782h-4.551v-17.741h18.541v4.214Zm26.577-.422L628.527 365h-4.846l11.841-26.506h-15.591v-4.088h20.311v3.582Z"/><path fill="#888" d="M240 298h371.429v104H240z"/><path fill="#fff" d="M308.879 365.295c-1.967 0-3.737-.337-5.31-1.011-1.574-.703-2.81-1.686-3.709-2.95-.899-1.265-1.349-2.74-1.349-4.425h5.142c.112 1.264.604 2.303 1.475 3.118.899.815 2.149 1.222 3.751 1.222 1.657 0 2.95-.393 3.877-1.18.927-.814 1.39-1.854 1.39-3.118 0-.984-.295-1.784-.885-2.402-.562-.619-1.278-1.096-2.149-1.433-.843-.337-2.023-.703-3.54-1.096-1.91-.506-3.47-1.011-4.678-1.517-1.18-.534-2.191-1.349-3.034-2.444-.843-1.096-1.264-2.557-1.264-4.383 0-1.686.421-3.161 1.264-4.425.843-1.265 2.023-2.234 3.54-2.908 1.517-.674 3.273-1.012 5.268-1.012 2.837 0 5.155.717 6.953 2.15 1.827 1.404 2.838 3.343 3.035 5.815h-5.31c-.085-1.067-.59-1.98-1.517-2.739-.928-.758-2.15-1.138-3.667-1.138-1.377 0-2.5.351-3.371 1.054-.871.702-1.307 1.714-1.307 3.034 0 .899.267 1.644.801 2.234.562.562 1.264 1.011 2.107 1.348.843.337 1.995.703 3.456 1.096 1.938.534 3.512 1.068 4.72 1.601 1.236.534 2.276 1.363 3.118 2.487.871 1.096 1.307 2.571 1.307 4.425 0 1.489-.408 2.894-1.222 4.214-.787 1.321-1.953 2.388-3.498 3.203-1.517.787-3.315 1.18-5.394 1.18Zm39.172-29.584V365h-4.804v-12.811h-13.781V365h-4.804v-29.289h4.804v12.558h13.781v-12.558h4.804Zm19.684 29.584c-2.725 0-5.24-.632-7.544-1.896-2.275-1.293-4.087-3.077-5.436-5.353-1.32-2.303-1.981-4.888-1.981-7.754 0-2.866.661-5.436 1.981-7.712 1.349-2.276 3.161-4.046 5.436-5.31 2.304-1.292 4.819-1.939 7.544-1.939 2.753 0 5.268.647 7.544 1.939a13.908 13.908 0 0 1 5.436 5.31c1.32 2.276 1.981 4.846 1.981 7.712 0 2.866-.661 5.451-1.981 7.754a14.217 14.217 0 0 1-5.436 5.353c-2.276 1.264-4.791 1.896-7.544 1.896Zm0-4.172c1.939 0 3.666-.436 5.184-1.307 1.517-.899 2.697-2.163 3.54-3.792.871-1.658 1.306-3.569 1.306-5.732 0-2.163-.435-4.06-1.306-5.689-.843-1.63-2.023-2.88-3.54-3.751-1.518-.871-3.245-1.306-5.184-1.306s-3.666.435-5.184 1.306c-1.517.871-2.711 2.121-3.582 3.751-.843 1.629-1.264 3.526-1.264 5.689 0 2.163.421 4.074 1.264 5.732.871 1.629 2.065 2.893 3.582 3.792 1.518.871 3.245 1.307 5.184 1.307Zm57.828-25.412L416.881 365h-5.436l-6.153-22.167L398.76 365l-5.395.042-8.302-29.331h5.1l6.068 23.853 6.574-23.853h5.395l6.11 23.726 6.111-23.726h5.142Zm13.308 14.581c0-2.866.66-5.436 1.981-7.712 1.348-2.276 3.16-4.046 5.436-5.31 2.304-1.292 4.818-1.939 7.544-1.939 3.118 0 5.885.773 8.302 2.318 2.444 1.517 4.214 3.681 5.31 6.49h-5.774c-.758-1.545-1.812-2.697-3.161-3.455-1.348-.759-2.907-1.138-4.677-1.138-1.939 0-3.667.435-5.184 1.306-1.517.871-2.711 2.121-3.582 3.751-.843 1.629-1.264 3.526-1.264 5.689 0 2.163.421 4.06 1.264 5.689.871 1.63 2.065 2.894 3.582 3.793 1.517.871 3.245 1.307 5.184 1.307 1.77 0 3.329-.38 4.677-1.138 1.349-.759 2.403-1.911 3.161-3.456h5.774c-1.096 2.81-2.866 4.973-5.31 6.49-2.417 1.517-5.184 2.276-8.302 2.276-2.754 0-5.268-.632-7.544-1.897-2.276-1.292-4.088-3.076-5.436-5.352-1.321-2.275-1.981-4.846-1.981-7.712Zm47.555 15.003c-2.725 0-5.239-.632-7.543-1.896-2.276-1.293-4.088-3.077-5.437-5.353-1.32-2.303-1.98-4.888-1.98-7.754 0-2.866.66-5.436 1.98-7.712 1.349-2.276 3.161-4.046 5.437-5.31 2.304-1.292 4.818-1.939 7.543-1.939 2.754 0 5.268.647 7.544 1.939a13.902 13.902 0 0 1 5.436 5.31c1.321 2.276 1.981 4.846 1.981 7.712 0 2.866-.66 5.451-1.981 7.754a14.21 14.21 0 0 1-5.436 5.353c-2.276 1.264-4.79 1.896-7.544 1.896Zm0-4.172c1.939 0 3.667-.436 5.184-1.307 1.517-.899 2.697-2.163 3.54-3.792.871-1.658 1.306-3.569 1.306-5.732 0-2.163-.435-4.06-1.306-5.689-.843-1.63-2.023-2.88-3.54-3.751s-3.245-1.306-5.184-1.306c-1.938 0-3.666.435-5.183 1.306s-2.711 2.121-3.582 3.751c-.843 1.629-1.265 3.526-1.265 5.689 0 2.163.422 4.074 1.265 5.732.871 1.629 2.065 2.893 3.582 3.792 1.517.871 3.245 1.307 5.183 1.307Zm29.255-25.412c3.119 0 5.844.604 8.176 1.812 2.36 1.18 4.172 2.894 5.436 5.141 1.293 2.22 1.939 4.819 1.939 7.797 0 2.978-.646 5.563-1.939 7.754-1.264 2.191-3.076 3.877-5.436 5.057-2.332 1.152-5.057 1.728-8.176 1.728h-9.566v-29.289h9.566Zm0 25.37c3.428 0 6.055-.927 7.881-2.782 1.826-1.854 2.739-4.467 2.739-7.838 0-3.4-.913-6.055-2.739-7.965-1.826-1.911-4.453-2.866-7.881-2.866h-4.762v21.451h4.762Zm25.117-21.493v8.597h10.114v3.919h-10.114v8.977h11.378V365h-16.183v-29.331h16.183v3.919h-11.378Z"/></g><defs><clipPath id="a"><rect width="335.771" height="104" x="424.229" y="298" fill="#fff" rx="7.429"/></clipPath></defs></svg>

<svg width="1000" height="700" viewBox="0 0 1000 700" fill="none" xmlns="http://www.w3.org/2000/svg">
<rect width="1000" height="700" fill="#FCFCFF"/>
<rect x="240" y="298" width="520" height="104" rx="7.42857" fill="#F2F2F2"/>
<g clip-path="url(#clip0_5_968)">
<line x1="423.677" y1="431.217" x2="615.334" y2="218.76" stroke="#E8E8E8" stroke-width="1.48571"/>
<line x1="572.248" y1="431.217" x2="763.906" y2="218.76" stroke="#E8E8E8" stroke-width="1.48571"/>
<line x1="497.963" y1="431.217" x2="689.62" y2="218.76" stroke="#E8E8E8" stroke-width="1.48571"/>
<line x1="646.534" y1="431.217" x2="838.191" y2="218.76" stroke="#E8E8E8" stroke-width="1.48571"/>
<line x1="460.82" y1="431.217" x2="652.477" y2="218.76" stroke="#E8E8E8" stroke-width="1.48571"/>
<line x1="609.391" y1="431.217" x2="801.048" y2="218.76" stroke="#E8E8E8" stroke-width="1.48571"/>
<line x1="535.106" y1="431.217" x2="726.763" y2="218.76" stroke="#E8E8E8" stroke-width="1.48571"/>
<line x1="683.677" y1="431.217" x2="875.334" y2="218.76" stroke="#E8E8E8" stroke-width="1.48571"/>
<line x1="431.106" y1="431.217" x2="622.763" y2="218.76" stroke="#E8E8E8" stroke-width="1.48571"/>
<line x1="579.677" y1="431.217" x2="771.334" y2="218.76" stroke="#E8E8E8" stroke-width="1.48571"/>
<line x1="505.391" y1="431.217" x2="697.048" y2="218.76" stroke="#E8E8E8" stroke-width="1.48571"/>
<line x1="653.963" y1="431.217" x2="845.62" y2="218.76" stroke="#E8E8E8" stroke-width="1.48571"/>
<line x1="468.248" y1="431.217" x2="659.906" y2="218.76" stroke="#E8E8E8" stroke-width="1.48571"/>
<line x1="616.82" y1="431.217" x2="808.477" y2="218.76" stroke="#E8E8E8" stroke-width="1.48571"/>
<line x1="542.534" y1="431.217" x2="734.191" y2="218.76" stroke="#E8E8E8" stroke-width="1.48571"/>
<line x1="691.106" y1="431.217" x2="882.763" y2="218.76" stroke="#E8E8E8" stroke-width="1.48571"/>
<line x1="438.534" y1="431.217" x2="630.191" y2="218.76" stroke="#E8E8E8" stroke-width="1.48571"/>
<line x1="587.106" y1="431.217" x2="778.763" y2="218.76" stroke="#E8E8E8" stroke-width="1.48571"/>
<line x1="512.82" y1="431.217" x2="704.477" y2="218.76" stroke="#E8E8E8" stroke-width="1.48571"/>
<line x1="661.391" y1="431.217" x2="853.048" y2="218.76" stroke="#E8E8E8" stroke-width="1.48571"/>
<line x1="475.677" y1="431.217" x2="667.334" y2="218.76" stroke="#E8E8E8" stroke-width="1.48571"/>
<line x1="624.248" y1="431.217" x2="815.906" y2="218.76" stroke="#E8E8E8" stroke-width="1.48571"/>
<line x1="549.963" y1="431.217" x2="741.62" y2="218.76" stroke="#E8E8E8" stroke-width="1.48571"/>
<line x1="698.534" y1="431.217" x2="890.191" y2="218.76" stroke="#E8E8E8" stroke-width="1.48571"/>
<line x1="445.963" y1="431.217" x2="637.62" y2="218.76" stroke="#E8E8E8" stroke-width="1.48571"/>
<line x1="594.534" y1="431.217" x2="786.191" y2="218.76" stroke="#E8E8E8" stroke-width="1.48571"/>
<line x1="520.248" y1="431.217" x2="711.906" y2="218.76" stroke="#E8E8E8" stroke-width="1.48571"/>
<line x1="668.82" y1="431.217" x2="860.477" y2="218.76" stroke="#E8E8E8" stroke-width="1.48571"/>
<line x1="483.106" y1="431.217" x2="674.763" y2="218.76" stroke="#E8E8E8" stroke-width="1.48571"/>
<line x1="631.677" y1="431.217" x2="823.334" y2="218.76" stroke="#E8E8E8" stroke-width="1.48571"/>
<line x1="557.391" y1="431.217" x2="749.048" y2="218.76" stroke="#E8E8E8" stroke-width="1.48571"/>
<line x1="705.963" y1="431.217" x2="897.62" y2="218.76" stroke="#E8E8E8" stroke-width="1.48571"/>
<line x1="453.391" y1="431.217" x2="645.048" y2="218.76" stroke="#E8E8E8" stroke-width="1.48571"/>
<line x1="601.963" y1="431.217" x2="793.62" y2="218.76" stroke="#E8E8E8" stroke-width="1.48571"/>
<line x1="527.677" y1="431.217" x2="719.334" y2="218.76" stroke="#E8E8E8" stroke-width="1.48571"/>
<line x1="676.248" y1="431.217" x2="867.906" y2="218.76" stroke="#E8E8E8" stroke-width="1.48571"/>
<line x1="490.534" y1="431.217" x2="682.191" y2="218.76" stroke="#E8E8E8" stroke-width="1.48571"/>
<line x1="639.106" y1="431.217" x2="830.763" y2="218.76" stroke="#E8E8E8" stroke-width="1.48571"/>
<line x1="564.82" y1="431.217" x2="756.477" y2="218.76" stroke="#E8E8E8" stroke-width="1.48571"/>
<line x1="713.391" y1="431.217" x2="905.048" y2="218.76" stroke="#E8E8E8" stroke-width="1.48571"/>
<line x1="713.391" y1="438.645" x2="905.048" y2="226.188" stroke="#E8E8E8" stroke-width="1.48571"/>
<line x1="719.334" y1="438.645" x2="910.991" y2="226.188" stroke="#E8E8E8" stroke-width="1.48571"/>
</g>
<mask id="mask0_5_968" style="mask-type:alpha" maskUnits="userSpaceOnUse" x="240" y="298" width="520" height="104">
<rect x="240" y="298" width="520" height="104" rx="7.42857" fill="#8072FC"/>
</mask>
<g mask="url(#mask0_5_968)">
<path d="M559.985 365.295C558.019 365.295 556.249 364.958 554.676 364.284C553.102 363.581 551.866 362.598 550.967 361.334C550.068 360.07 549.619 358.595 549.619 356.909H554.76C554.872 358.173 555.364 359.213 556.235 360.027C557.134 360.842 558.384 361.25 559.985 361.25C561.643 361.25 562.935 360.856 563.862 360.07C564.789 359.255 565.253 358.215 565.253 356.951C565.253 355.968 564.958 355.167 564.368 354.549C563.806 353.931 563.09 353.454 562.219 353.117C561.376 352.779 560.196 352.414 558.679 352.021C556.769 351.515 555.209 351.01 554.001 350.504C552.822 349.97 551.81 349.155 550.967 348.06C550.125 346.964 549.703 345.503 549.703 343.677C549.703 341.992 550.125 340.517 550.967 339.252C551.81 337.988 552.99 337.019 554.507 336.345C556.024 335.671 557.78 335.333 559.775 335.333C562.612 335.333 564.93 336.05 566.728 337.483C568.554 338.887 569.565 340.826 569.762 343.298H564.452C564.368 342.23 563.862 341.317 562.935 340.559C562.008 339.8 560.786 339.421 559.269 339.421C557.892 339.421 556.769 339.772 555.898 340.475C555.027 341.177 554.591 342.188 554.591 343.509C554.591 344.408 554.858 345.152 555.392 345.742C555.954 346.304 556.656 346.753 557.499 347.09C558.342 347.428 559.494 347.793 560.955 348.186C562.893 348.72 564.466 349.254 565.674 349.787C566.91 350.321 567.95 351.15 568.793 352.274C569.664 353.369 570.099 354.844 570.099 356.698C570.099 358.187 569.692 359.592 568.877 360.912C568.09 362.233 566.924 363.3 565.379 364.115C563.862 364.902 562.064 365.295 559.985 365.295ZM580.571 361.123H590.474V365H575.767V335.713H580.571V361.123ZM613.665 338.41H599.549V346.796C600.139 346.009 601.009 345.349 602.161 344.815C603.341 344.281 604.591 344.014 605.912 344.014C608.272 344.014 610.182 344.52 611.643 345.531C613.132 346.543 614.185 347.821 614.803 349.366C615.449 350.911 615.772 352.541 615.772 354.254C615.772 356.333 615.365 358.187 614.55 359.817C613.764 361.418 612.57 362.682 610.969 363.609C609.395 364.536 607.457 365 605.153 365C602.091 365 599.633 364.241 597.779 362.724C595.925 361.207 594.815 359.199 594.45 356.698H599.127C599.436 358.019 600.124 359.072 601.192 359.859C602.26 360.617 603.594 360.997 605.195 360.997C607.19 360.997 608.679 360.393 609.662 359.185C610.674 357.977 611.179 356.375 611.179 354.381C611.179 352.358 610.674 350.813 609.662 349.745C608.651 348.65 607.162 348.102 605.195 348.102C603.819 348.102 602.653 348.453 601.698 349.155C600.771 349.83 600.096 350.757 599.675 351.937H595.124V334.196H613.665V338.41ZM640.242 337.988L628.527 365H623.681L635.522 338.494H619.931V334.406H640.242V337.988Z" fill="#13234A"/>
<rect x="240" y="298" width="371.429" height="104" fill="#888888"/>
<path d="M308.879 365.295C306.912 365.295 305.142 364.958 303.569 364.284C301.995 363.581 300.759 362.598 299.86 361.334C298.961 360.069 298.511 358.594 298.511 356.909H303.653C303.765 358.173 304.257 359.212 305.128 360.027C306.027 360.842 307.277 361.249 308.879 361.249C310.536 361.249 311.829 360.856 312.756 360.069C313.683 359.255 314.146 358.215 314.146 356.951C314.146 355.967 313.851 355.167 313.261 354.549C312.699 353.93 311.983 353.453 311.112 353.116C310.269 352.779 309.089 352.413 307.572 352.02C305.662 351.514 304.102 351.009 302.894 350.503C301.714 349.969 300.703 349.154 299.86 348.059C299.017 346.963 298.596 345.502 298.596 343.676C298.596 341.99 299.017 340.515 299.86 339.251C300.703 337.986 301.883 337.017 303.4 336.343C304.917 335.669 306.673 335.331 308.668 335.331C311.505 335.331 313.823 336.048 315.621 337.481C317.448 338.885 318.459 340.824 318.656 343.296H313.346C313.261 342.229 312.756 341.316 311.829 340.557C310.901 339.799 309.679 339.419 308.162 339.419C306.785 339.419 305.662 339.77 304.791 340.473C303.92 341.175 303.484 342.187 303.484 343.507C303.484 344.406 303.751 345.151 304.285 345.741C304.847 346.303 305.549 346.752 306.392 347.089C307.235 347.426 308.387 347.792 309.848 348.185C311.786 348.719 313.36 349.253 314.568 349.786C315.804 350.32 316.844 351.149 317.686 352.273C318.557 353.369 318.993 354.844 318.993 356.698C318.993 358.187 318.585 359.592 317.771 360.912C316.984 362.233 315.818 363.3 314.273 364.115C312.756 364.902 310.958 365.295 308.879 365.295ZM348.051 335.711V365H343.247V352.189H329.466V365H324.662V335.711H329.466V348.269H343.247V335.711H348.051ZM367.735 365.295C365.01 365.295 362.495 364.663 360.191 363.399C357.916 362.106 356.104 360.322 354.755 358.046C353.435 355.743 352.774 353.158 352.774 350.292C352.774 347.426 353.435 344.856 354.755 342.58C356.104 340.304 357.916 338.534 360.191 337.27C362.495 335.978 365.01 335.331 367.735 335.331C370.488 335.331 373.003 335.978 375.279 337.27C377.582 338.534 379.395 340.304 380.715 342.58C382.035 344.856 382.696 347.426 382.696 350.292C382.696 353.158 382.035 355.743 380.715 358.046C379.395 360.322 377.582 362.106 375.279 363.399C373.003 364.663 370.488 365.295 367.735 365.295ZM367.735 361.123C369.674 361.123 371.401 360.687 372.919 359.816C374.436 358.917 375.616 357.653 376.459 356.024C377.33 354.366 377.765 352.455 377.765 350.292C377.765 348.129 377.33 346.232 376.459 344.603C375.616 342.973 374.436 341.723 372.919 340.852C371.401 339.981 369.674 339.546 367.735 339.546C365.796 339.546 364.069 339.981 362.551 340.852C361.034 341.723 359.84 342.973 358.969 344.603C358.126 346.232 357.705 348.129 357.705 350.292C357.705 352.455 358.126 354.366 358.969 356.024C359.84 357.653 361.034 358.917 362.551 359.816C364.069 360.687 365.796 361.123 367.735 361.123ZM425.563 335.711L416.881 365H411.445L405.292 342.833L398.76 365L393.365 365.042L385.063 335.711H390.163L396.231 359.564L402.805 335.711H408.2L414.31 359.437L420.421 335.711H425.563ZM438.871 350.292C438.871 347.426 439.531 344.856 440.852 342.58C442.2 340.304 444.012 338.534 446.288 337.27C448.592 335.978 451.106 335.331 453.832 335.331C456.95 335.331 459.717 336.104 462.134 337.649C464.578 339.166 466.348 341.33 467.444 344.139H461.67C460.912 342.594 459.858 341.442 458.509 340.684C457.161 339.925 455.602 339.546 453.832 339.546C451.893 339.546 450.165 339.981 448.648 340.852C447.131 341.723 445.937 342.973 445.066 344.603C444.223 346.232 443.802 348.129 443.802 350.292C443.802 352.455 444.223 354.352 445.066 355.981C445.937 357.611 447.131 358.875 448.648 359.774C450.165 360.645 451.893 361.081 453.832 361.081C455.602 361.081 457.161 360.701 458.509 359.943C459.858 359.184 460.912 358.032 461.67 356.487H467.444C466.348 359.297 464.578 361.46 462.134 362.977C459.717 364.494 456.95 365.253 453.832 365.253C451.078 365.253 448.564 364.621 446.288 363.356C444.012 362.064 442.2 360.28 440.852 358.004C439.531 355.729 438.871 353.158 438.871 350.292ZM486.426 365.295C483.701 365.295 481.187 364.663 478.883 363.399C476.607 362.106 474.795 360.322 473.446 358.046C472.126 355.743 471.466 353.158 471.466 350.292C471.466 347.426 472.126 344.856 473.446 342.58C474.795 340.304 476.607 338.534 478.883 337.27C481.187 335.978 483.701 335.331 486.426 335.331C489.18 335.331 491.694 335.978 493.97 337.27C496.274 338.534 498.086 340.304 499.406 342.58C500.727 344.856 501.387 347.426 501.387 350.292C501.387 353.158 500.727 355.743 499.406 358.046C498.086 360.322 496.274 362.106 493.97 363.399C491.694 364.663 489.18 365.295 486.426 365.295ZM486.426 361.123C488.365 361.123 490.093 360.687 491.61 359.816C493.127 358.917 494.307 357.653 495.15 356.024C496.021 354.366 496.456 352.455 496.456 350.292C496.456 348.129 496.021 346.232 495.15 344.603C494.307 342.973 493.127 341.723 491.61 340.852C490.093 339.981 488.365 339.546 486.426 339.546C484.488 339.546 482.76 339.981 481.243 340.852C479.726 341.723 478.532 342.973 477.661 344.603C476.818 346.232 476.396 348.129 476.396 350.292C476.396 352.455 476.818 354.366 477.661 356.024C478.532 357.653 479.726 358.917 481.243 359.816C482.76 360.687 484.488 361.123 486.426 361.123ZM515.681 335.711C518.8 335.711 521.525 336.315 523.857 337.523C526.217 338.703 528.029 340.417 529.293 342.664C530.586 344.884 531.232 347.483 531.232 350.461C531.232 353.439 530.586 356.024 529.293 358.215C528.029 360.406 526.217 362.092 523.857 363.272C521.525 364.424 518.8 365 515.681 365H506.115V335.711H515.681ZM515.681 361.081C519.109 361.081 521.736 360.154 523.562 358.299C525.388 356.445 526.301 353.832 526.301 350.461C526.301 347.061 525.388 344.406 523.562 342.496C521.736 340.585 519.109 339.63 515.681 339.63H510.919V361.081H515.681ZM540.798 339.588V348.185H550.912V352.104H540.798V361.081H552.176V365H535.993V335.669H552.176V339.588H540.798Z" fill="white"/>
</g>
<defs>
<clipPath id="clip0_5_968">
<rect x="424.229" y="298" width="335.771" height="104" rx="7.42857" fill="white"/>
</clipPath>
</defs>
</svg>
